X:0090
T:Port Patrick.
M:6/8
L:1/8
Q:3/8=120
I: :: ::
Z:Jack Campin * www.campin.me.uk * 2009
K:G
g|dBG GAB|c2B A2G| dBG     GAG|A2B c2
g|dBG GAB|c2B A2G|(B/c/d)B cAd|BGG G2:|
d|ece dBd|ece dBd| efg     dBG|A2B c2
e|def gfe|dcB A2G|(B/c/d)B cAd|BGG G2:|
<end>
<start>
